X: 6795
T: Charlady, The
R: jig
M: 6/8
K: Amajor
G|:Aca gec|def ecA|dBG ecA|dcd BGE|
CEG AEC|DBA GFG|Aca gec|dBG A2:|
c|dcd BGE|ede cAE|dcd Bcd|EGB AGE|
DEF GAB|cdc BGE|cAE dBG|DFB AGE||
dcd BGE|ede cAE|dcd Bcd|EGB AGE|
cAE dBG|ecA fdB|dcd Bcd|fga b2 G|
Aca gec|def ecA|dBG ecA|dcd BGE|
CEG AEC|DBA GFG|Aca gec|dBG A2||

